X:1
T:Old Woman's Dance  "(c) Donald MacLeod Book 2"
M:6/8
L:1/8
Q:80
C:P/M Donald MacLeod
S:Jig
K:HP
|: {g}d{e}G{d}B{g}A{d}A{e}A | \
{g}G{d}Bg{a}gfg | \
ae{A}e{g}ege |
{g}d{e}Bd{gef}edB | \
{g}d{e}G{d}B{g}A{d}A{e}A | \
{g}G{d}Bg{a}gfg |
ae{A}e{g}ege | \
{g}d{e}G{d}B{g}A{d}A{e}A :: \
a{g}a{g}aAa{g}a |
ea{g}aged | \
{g}eag{a}G{d}Be | \
{g}d{e}Bd{gef}edB|1
a{g}a{g}aAa{g}a | \
ea{g}aged | \
ae{A}e{g}ege |
{g}d{e}G{d}B{g}A{d}A{e}A :: \
{g}d{e}G{d}B{g}A{d}A{e}A | \
{g}G{d}Be{g}de{A}e |
ag{a}e{a}gBe | \
{g}degag{a}e | \
{g}d{e}G{d}B{g}A{d}A{e}A |
{g}G{d}Be{g}deg | \
ae{A}e{g}ege | \
{g}d{e}G{d}B{g}A{d}A{e}A ::
ae{A}e{a}ge{A}e | \
{g}de{A}eae{A}e | \
{a}gd{G}d{g}ed{G}d |
{g}Bd{G}d{a}gd{G}d | \
ae{A}e{a}ge{A}e | \
{g}dega{GdG}a2 |
ge{A}e{g}ege | \
{g}d{e}G{d}B{g}A{d}A{e}A :|
